X:80
T:Nebuchadnezzar's Delight. JJo.080
B:J.Johnson Choice Collection Vol 8 1758
Z:vmp.Simon Wilson 2013 www.village-music-project.org.uk
Z:Dance added by John Chambers 2017
M:6/8
L:1/8
%Q:3/8=120
K:C
|:\
{d}"^tr"c>Bc {d}"^tr"cBc | cGF EDC | DBd Ece | Ffd {c}BAG |\
{d}c>Bc {c}c>Bc | ca^f gfg | edc BdG | Ac^FG3 :|
|:\
GA_B BgG | GA_B AGF | ABc cAa | ABc BAG |\
afd gec | Afd BAG | AGF EGC | DFB,C3 :|
%%begintext align
%% Hey contrary sides :|. then
%% hey of your own sides .||. gallop
%% down, up again cast off || right
%% and Left :||:
%%endtext
